loleaflet/images/lc_setanchortopage.svg

<svg viewBox="0 0 24 24" xmlns="http://www.w3.org/2000/svg"><path d="m5 3v18h3v-1.5c0-.432593.1940807-.828873.4980469-1.105469.2677906-.243677.6208435-.394531 1.0019531-.394531h1.005859 1.994141c.813703 0 1.5.686297 1.5 1.5 0 .662853-.457681 1.234142-1.066406 1.425781.04052.02668.08386.04856.125.07422h1.941406v-4.000001h-1.5c-.813703 0-1.5-.686297-1.5-1.5s.686297-1.5 1.5-1.5h1.5v-.572266c-1.112875-.601945-1.9979-1.651784-2-2.925781v-.001953c0-.9162979.37747-1.8266889 1.025391-2.4746094.64792-.6479204 1.558311-1.0253906 2.474609-1.0253906s1.826689.3774702 2.474609 1.0253906c.0095.00951.016.021627.02539.03125v-1.328125l-3.999999-3.7285156z" fill="#fafafa"/><path d="m5 2c-.554 0-1 .446-1 1v18c0 .554.446 1 1 1h3v-1h-3v-18h9v4c0 .3060336.144154.5688091.359375.7519531.610215-.4720037 1.36852-.7519531 2.140625-.7519531.902847 0 1.797412.3694369 2.443359 1h.056641v.056641c.630564.6459473 1 1.5405118 1 2.443359v-3.25-.2089844c0-.4506799.098038-.4254121-.605469-1.0664062l-3.30664-3.2382813c-.709525-.7368575-.710169-.7363281-1.09375-.7363281h-.332032-.662109z" fill="#3a3a38"/><path d="m15 7h4l-4-4z" fill="#fafafa" fill-rule="evenodd"/><path d="m16.5 8a2.5 2.5 0 0 0 -2.5 2.5 2.5 2.5 0 0 0 2 2.445313v2.054687h-2.5c-.277 0-.5.223-.5.5s.223.5.5.5h2.5v6.974609a7.5 7.5 0 0 1 -5.490234-2.974609h1.990234c.277 0 .5-.223.5-.5s-.223-.5-.5-.5h-3c-.277 0-.5.223-.5.5v3c0 .277.223.5.5.5s.5-.223.5-.5v-1.550781a8.5 8.5 0 0 0 6.5 3.050781 8.5 8.5 0 0 0 6.5-3.042969v1.542969c0 .277.223.5.5.5s.5-.223.5-.5v-3c0-.277-.223-.5-.5-.5h-3c-.277 0-.5.223-.5.5s.223.5.5.5h1.988281a7.5 7.5 0 0 1 -5.488281 2.974609v-6.974609h2.5c.277 0 .5-.223.5-.5s-.223-.5-.5-.5h-2.5v-2.050781a2.5 2.5 0 0 0 2-2.449219 2.5 2.5 0 0 0 -2.5-2.5zm0 1a1.5 1.5 0 0 1 1.5 1.5 1.5 1.5 0 0 1 -1.5 1.5 1.5 1.5 0 0 1 -1.5-1.5 1.5 1.5 0 0 1 1.5-1.5z" fill="#1e8bcd"/></svg>

<?xml version="1.0" encoding="UTF-8" standalone="no"?>
<svg
   xmlns:dc="http://purl.org/dc/elements/1.1/"
   xmlns:cc="http://creativecommons.org/ns#"
   xmlns:rdf="http://www.w3.org/1999/02/22-rdf-syntax-ns#"
   xmlns:svg="http://www.w3.org/2000/svg"
   xmlns="http://www.w3.org/2000/svg"
   xmlns:sodipodi="http://sodipodi.sourceforge.net/DTD/sodipodi-0.dtd"
   xmlns:inkscape="http://www.inkscape.org/namespaces/inkscape"
   viewBox="0 0 24 24"
   version="1.1"
   id="svg4"
   sodipodi:docname="lc_setanchortopage.svg"
   inkscape:version="0.92.5 (2060ec1f9f, 2020-04-08)">
  <metadata
     id="metadata10">
    <rdf:RDF>
      <cc:Work
         rdf:about="">
        <dc:format>image/svg+xml</dc:format>
        <dc:type
           rdf:resource="http://purl.org/dc/dcmitype/StillImage" />
        <dc:title></dc:title>
      </cc:Work>
    </rdf:RDF>
  </metadata>
  <defs
     id="defs8" />
  <sodipodi:namedview
     pagecolor="#ffffff"
     bordercolor="#666666"
     borderopacity="1"
     objecttolerance="10"
     gridtolerance="10"
     guidetolerance="10"
     inkscape:pageopacity="0"
     inkscape:pageshadow="2"
     inkscape:window-width="1366"
     inkscape:window-height="700"
     id="namedview6"
     showgrid="true"
     inkscape:zoom="19.666667"
     inkscape:cx="11.923454"
     inkscape:cy="6.4119017"
     inkscape:window-x="0"
     inkscape:window-y="0"
     inkscape:window-maximized="1"
     inkscape:current-layer="svg4">
    <inkscape:grid
       type="xygrid"
       id="grid817" />
  </sodipodi:namedview>
  <path
     style="fill:#fafafa"
     d="M 5,3 V 21 H 8 V 19.5 C 8,19.067407 8.1940807,18.671127 8.4980469,18.394531 8.7658375,18.150854 9.1188904,18 9.5,18 H 10.505859 12.5 c 0.813703,0 1.5,0.686297 1.5,1.5 0,0.662853 -0.457681,1.234142 -1.066406,1.425781 0.04052,0.02668 0.08386,0.04856 0.125,0.07422 H 15 V 17 H 13.5 C 12.686297,17 12,16.313703 12,15.5 12,14.686297 12.686297,14 13.5,14 H 15 V 13.427734 C 13.887125,12.825789 13.0021,11.77595 13,10.501953 V 10.5 C 13,9.5837021 13.37747,8.6733111 14.025391,8.0253906 14.673311,7.3774702 15.583702,7 16.5,7 c 0.916298,0 1.826689,0.3774702 2.474609,1.0253906 0.0095,0.00951 0.016,0.021627 0.02539,0.03125 V 6.7285156 L 15,3 Z"
     id="path2"
     inkscape:connector-curvature="0"
     sodipodi:nodetypes="cccscscssccccssscccsssccccc" />
  <path
     style="fill:#3a3a38"
     d="M 5,2 C 4.446,2 4,2.446 4,3 v 18 c 0,0.554 0.446,1 1,1 H 8 V 21 H 5 V 3 h 9 v 4 c 0,0.3060336 0.144154,0.5688091 0.359375,0.7519531 C 14.96959,7.2799494 15.727895,7 16.5,7 c 0.902847,0 1.797412,0.3694369 2.443359,1 H 19 v 0.056641 C 19.630564,8.7025883 20,9.5971528 20,10.5 V 7.25 7.0410156 C 20,6.5903357 20.098038,6.6156035 19.394531,5.9746094 L 16.087891,2.7363281 C 15.378366,1.9994706 15.377722,2 14.994141,2 H 14.662109 14 Z"
     id="path4"
     inkscape:connector-curvature="0"
     sodipodi:nodetypes="sssscccccscscccccsccsccs" />
  <path
     inkscape:connector-curvature="0"
     style="fill:#fafafa;fill-rule:evenodd"
     d="m 15,7 h 4 L 15,3 Z"
     id="path6" />
  <path
     inkscape:connector-curvature="0"
     style="fill:#1e8bcd"
     d="m 16.5,8 a 2.5,2.5 0 0 0 -2.5,2.5 2.5,2.5 0 0 0 2,2.445313 V 15 h -2.5 c -0.277,0 -0.5,0.223 -0.5,0.5 0,0.277 0.223,0.5 0.5,0.5 H 16 v 6.974609 A 7.5,7.5 0 0 1 10.509766,20 H 12.5 C 12.777,20 13,19.777 13,19.5 13,19.223 12.777,19 12.5,19 h -3 C 9.223,19 9,19.223 9,19.5 v 3 C 9,22.777 9.223,23 9.5,23 9.777,23 10,22.777 10,22.5 V 20.949219 A 8.5,8.5 0 0 0 16.5,24 8.5,8.5 0 0 0 23,20.957031 V 22.5 c 0,0.277 0.223,0.5 0.5,0.5 0.277,0 0.5,-0.223 0.5,-0.5 v -3 C 24,19.223 23.777,19 23.5,19 h -3 c -0.277,0 -0.5,0.223 -0.5,0.5 0,0.277 0.223,0.5 0.5,0.5 h 1.988281 A 7.5,7.5 0 0 1 17,22.974609 V 16 h 2.5 C 19.777,16 20,15.777 20,15.5 20,15.223 19.777,15 19.5,15 H 17 V 12.949219 A 2.5,2.5 0 0 0 19,10.5 2.5,2.5 0 0 0 16.5,8 Z m 0,1 A 1.5,1.5 0 0 1 18,10.5 1.5,1.5 0 0 1 16.5,12 1.5,1.5 0 0 1 15,10.5 1.5,1.5 0 0 1 16.5,9 Z"
     id="path2-3" />
</svg>
